wasmegg/rockets-tracker/src/badges/badge-1.svg

<svg xmlns="http://www.w3.org/2000/svg" xml:space="preserve" style="fill-rule:evenodd;clip-rule:evenodd;stroke-linejoin:round;stroke-miterlimit:2" viewBox="0 0 64 64"><path d="M.252-.032C.248-.046.235-.051.222-.049H.221l-.004.001-.012.001-.021.001-.023.001Q.164-.13.16-.216L.159-.314l.005-.098Q.17-.491.171-.57c0-.053-.003-.107.003-.16C.176-.744.162-.755.15-.755a.02.02 0 0 0-.022.014l-.002.003-.044.087-.024.042-.013.021-.008.01-.001.002-.004.004q-.013.018 0 .035c.009.009.027.011.035 0a.5.5 0 0 0 .055-.084v.089C.12-.466.113-.401.111-.336c-.003.097.006.194.001.291L.05-.046a.025.025 0 0 0-.025.024c0 .014.011.025.025.025l.082.001h.006a1 1 0 0 0 .097-.006c.013-.002.02-.018.017-.03" style="fill:#fff;fill-rule:nonzero" transform="matrix(56 0 0 56 24.225 53.028)"/></svg>

<?xml version="1.0" encoding="UTF-8" standalone="no"?>
<!DOCTYPE svg PUBLIC "-//W3C//DTD SVG 1.1//EN" "http://www.w3.org/Graphics/SVG/1.1/DTD/svg11.dtd">
<svg width="100%" height="100%" viewBox="0 0 64 64" version="1.1" xmlns="http://www.w3.org/2000/svg" xmlns:xlink="http://www.w3.org/1999/xlink" xml:space="preserve" xmlns:serif="http://www.serif.com/" style="fill-rule:evenodd;clip-rule:evenodd;stroke-linejoin:round;stroke-miterlimit:2;">
    <g transform="matrix(1,0,0,1,-6.58139,22.0157)">
        <g transform="matrix(56,0,0,56,30.8061,31.0123)">
            <path d="M0.252,-0.032C0.248,-0.046 0.235,-0.051 0.222,-0.049L0.221,-0.049C0.221,-0.049 0.218,-0.048 0.217,-0.048C0.213,-0.048 0.209,-0.048 0.205,-0.047C0.198,-0.046 0.191,-0.046 0.184,-0.046C0.176,-0.045 0.168,-0.045 0.161,-0.045C0.164,-0.102 0.162,-0.159 0.16,-0.216C0.16,-0.249 0.159,-0.281 0.159,-0.314C0.16,-0.347 0.162,-0.38 0.164,-0.412C0.167,-0.465 0.171,-0.517 0.171,-0.57C0.171,-0.623 0.168,-0.677 0.174,-0.73C0.176,-0.744 0.162,-0.755 0.15,-0.755C0.139,-0.755 0.132,-0.749 0.128,-0.741C0.127,-0.74 0.127,-0.739 0.126,-0.738C0.111,-0.709 0.097,-0.68 0.082,-0.651C0.075,-0.637 0.067,-0.623 0.058,-0.609C0.054,-0.602 0.05,-0.595 0.045,-0.588C0.042,-0.585 0.04,-0.581 0.037,-0.578C0.037,-0.578 0.036,-0.577 0.036,-0.576C0.035,-0.574 0.034,-0.573 0.032,-0.572C0.024,-0.561 0.022,-0.547 0.032,-0.537C0.041,-0.528 0.059,-0.526 0.067,-0.537C0.088,-0.563 0.106,-0.591 0.122,-0.621C0.122,-0.591 0.123,-0.562 0.122,-0.532C0.12,-0.466 0.113,-0.401 0.111,-0.336C0.108,-0.239 0.117,-0.142 0.112,-0.045C0.091,-0.046 0.07,-0.046 0.05,-0.046C0.036,-0.046 0.025,-0.035 0.025,-0.022C0.025,-0.008 0.036,0.003 0.05,0.003C0.077,0.003 0.105,0.004 0.132,0.004L0.138,0.004C0.17,0.004 0.203,0.003 0.235,-0.002C0.248,-0.004 0.255,-0.02 0.252,-0.032Z" style="fill:white;fill-rule:nonzero;"/>
        </g>
    </g>
</svg>
